X:1
T:October
T:October
T:Autumn Song from The Seasons
T:P. Tschaikowsky, Op. 37a No. 10
C:Pyotr Ilyich Tchaikovsky
%%score { ( 1 2 ) | ( 3 4 ) }
L:1/8
Q:1/4=80
M:4/4
K:F
V:1 treble nm="Piano" snm="Pno."
V:2 treble 
V:3 bass 
V:4 bass 
V:1
"^Andante doloroso e molto cantabile"!p! z2 (f4 e2-) | (ed^GA) (d3 c | B2) (!>!B4 (^F2) | %3
 (F)Ged) (d2 ^c2) | %4
"_cresc." (3z"_poco cresc." !tenuto!A!tenuto!=B (3!tenuto!^c!tenuto!d!tenuto!e !>!a4- | %5
 (3a!tenuto!A!tenuto!=B (3!tenuto!^c!tenuto!d!tenuto!e (!>!a3!mf! d) | %6
!>(! (3(g=fe){de} (3(d^c(d) !>!f2- (3fed-!>)! | %7
"_dim.""_dim." (3d!>!^c=c- (3c!>!=B_B- (3B!>!AF- (3:2:2F2{EF} E | %8
!p!"_marcato" D) z z (A- A =B2 ^c- | c d2 ^c- c=c_BA | G) (D2 d- d B2 A- | AG-G^G- GA-AE) | %12
 (3z !tenuto!=c!tenuto!d (3!tenuto!e!tenuto!f!tenuto!g c4 | %13
 (3z !tenuto!A!tenuto!=B (3!tenuto!^c!tenuto!d!tenuto!e A4 | %14
"_dim.""_dim." (3z .E.F (3.G.AB- (3(B!>!BA- (3A!>!^G=G- | %15
 (3G!>!^F=F- (3F!>!^DE- (3:2:2E2 ^C (3:2:2C2 =D) |!p! (3z (GA (3B=Bc) (3:2:2(f2 e) (3:2:2(e2 d) | %17
 d2 c2- (3(cc=B (3:2:2d2 c) | (3z (GA (3B=Bc)"_" (3:2:2(f2 e) (3:2:2(e2 d) | %19
"_poco crescendo""_cresc." d2 ^c2- (3(c=dc (3:2:2e2 d) | %20
 f2 e2- (3(e=fe) (3:2:2(!arpeggio!!fermata!b2 a) | %21
!mf! (3z (a^g (3:2:2b2 a (3(a)=g^f) (3:2:2(a2 g) | (3z (g^f (3:2:2a2 g (3(g)=fe) (3:2:2(g2 f) | %23
 (3z (fe (3:2:2g2 f) (3(!>!fed) (3(!>!fed) | (3z (GA (3Bfe (3d^c^B) (3:2:2(c2 A) | %25
 (3z (a^g (3:2:2b2 a) (3(a=g^f) (3:2:2(a2 g) | (3z (g^f (3:2:2a2 g) (3(g=fe) (3:2:2(g2 f) | %27
 (3z (fe (3:2:2g2 f) (3(!>!fed) (3(!>!fed) | (3z!>(! (GA (3Bfe (3d^c!>)!^B) (3:2:2(c2 A) | %29
!p! (3z (G^F (3:2:2A2 G) x4 |!p! (3z (G^F (3:2:2A2 G) x4 | %31
[Q:1/4=80] z8[Q:1/4=77]"^.5"[Q:1/4=76]"^.3"[Q:1/4=73]"^.7"[Q:1/4=72]"^.5"[Q:1/4=71]"^.3"[Q:1/4=70][Q:1/4=68]"^.8"[Q:1/4=67]"^.5"[Q:1/4=66]"^.3" | %32
[Q:1/4=65] z8[Q:1/4=62]"^.5"[Q:1/4=61]"^.2"[Q:1/4=58]"^.8"[Q:1/4=57]"^.5"[Q:1/4=55][Q:1/4=53]"^.8"[Q:1/4=51]"^.3" | %33
!p!"^a tempo"[Q:1/4=80] z2 (f4 e2-) | (ed^GA) (d3 c | B2) (!>!B4 (^F2) | (F)Ged) (d2 ^c2) | %37
"_cresc." (3z"_poco cresc." !tenuto!A!tenuto!=B (3!tenuto!^c!tenuto!d!tenuto!e !>!a4- | %38
 (3a!tenuto!A!tenuto!=B (3!tenuto!^c!tenuto!d!tenuto!e (!>!a3!mf! d) | %39
!>(! (3(g=fe){de} (3(d^c(d) !>!f2- (3fed-!>)! | %40
"_dim.""_dim." (3d!>!^c=c- (3c!>!=B_B- (3B!>!AF- (3:2:2F2{EF} E | %41
!p!"_marcato" D) z z (A- A =B2 ^c- | c d2 ^c- c=c_BA | G) (D2 d2 B2 A- | AG-G^G- G A2 E) | %45
 (3z !tenuto!=c!tenuto!d (3!tenuto!e!tenuto!f!tenuto!g c4 | %46
 (3z !tenuto!A!tenuto!=B (3!tenuto!^c!tenuto!d!tenuto!e A4 | %47
"_dim.""_dim." (3z .E.F (3.G.AB- (3(B!>!BA- (3A!>!^G=G- | %48
 (3G!>!^F=F- (3F!>!^DE- (3:2:2E2 ^C (3:2:2C2 =D) | %49
!pp! (3z (E^D (3EFE-) (3:2:2(E2 ^C) (3:2:2(C2 =D) | (3z (GA B2- (3BFG A2) | %51
 (3z (E^D (3EFE-) (3:2:2(E2 ^C) (3:2:2(C2 =D) | (3z[K:bass] (G,A, B,2-) (3(B,F,G, A,2) | %53
 (3z (G,A, B,2-) (3(B,"_morendo"F,G, A,2-) | %54
 (3:2:2(A,2 B,) (3:2:2(B,2 A,) (3:2:2(B,2 A,) (3:2:2(B,2 A,) | %55
 (!>!C2- (3:2:2C2!pppp! B,) !fermata!A,2 x2 |] %56
V:2
 [FA]4 [GA]4 | [FA]2 z2 [D-A]4 | [DG]2 z2 [CD]4 | [B,D]2 [EG]2 [EG]4 | x8 | x8 | x8 | x8 | x8 | %9
 x8 | x8 | x8 | x8 | x8 | x8 | x8 | x8 | (3z (EF (3^FG^G) (!>!B2 A2) | x8 | %19
 (3z (E^D (3EFE) (!>!B2 A2) | (3z (G^F (3GAG) !>!d2 !arpeggio!!fermata![G^c]2 | x8 | x8 | x8 | x8 | %25
 x8 | x8 | x8 | x8 | (D4 [^CG]) z z2 | (D4 [^CG]) z z2 | x8 | x8 | [FA]4 [GA]4 | [FA]2 z2 [D-A]4 | %35
 [DG]2 z2 [CD]4 | [B,D]2 [EG]2 [EG]4 | x8 | x8 | x8 | x8 | x8 | x8 | x8 | x8 | x8 | x8 | x8 | %48
 x4 [F,A,]4 | x8 | x4 [A,D]4 | x4 [F,A,]4 | x2/3[K:bass] x22/3 | x8 | x8 | x8 |] %56
V:3
!ped! [D,A,D]4 [D,A,^C]4!ped-up! | [D,A,D]2 z2 (A,4 | G,2) z2 [A,,D,]4 | z2 B,2!ped! A,4!ped-up! | %4
 z2 [A,^CE]2"_"!ped! z2 [A,DF]2 |"_"!ped! z2!ped-up! [A,^CG]2!ped! z2!ped-up! [A,=C^F]2 | %6
"_"!ped! G,,2 [G,B,DG]2!ped! ^G,,2!ped-up! [^G,=B,DF]2!ped-up! | A,,2 [A,DF]2 A,,2 [G,A,^C]2 | %8
!ped! z2 (F4 E2-)!ped-up! | ED^G,A, (D3 C |!ped! !arpeggio!B,) z (!>!B,4!ped-up! ^F,2-) | %11
 (F,G,ED)!ped-up!!ped! (!arpeggio!D2 ^C2) |"^poco più" z2!f! !>!=G2- (3(GFE (3:2:2G2 F) | %13
 (F2 E2-) (3(ED^C (3:2:2E2 D) |!ped! (=C2 B,2) z2 [F,A,D]2!ped-up! | A,,2 [G,A,^C]2 [D,,A,,]4 | %16
"_"!ped! B,,2 [G,=CE]2!ped-up!"_"!ped! A,,2!ped-up! [A,CF]2 | %17
!ped! G,,2!ped-up! [B,CE]2"_"!ped-up!!ped! F,,2 [A,CF]2 | %18
"_"!ped! B,,2!ped-up! [G,CE]2!ped! A,,2!ped-up! [A,CF]2 | %19
!ped! G,,2!ped-up! [G,A,]2"_"!ped-up!!ped! F,,2 [F,A,D]2 | %20
!ped! ^C,,2!ped-up! [G,A,E]2"_"!ped-up!!ped! B,,2"_"!ped! !arpeggio!!fermata![A,,E,A,E]2!ped-up! | %21
"_"!ped! ^F,,2!ped-up! [^F,=CD]2!ped! (3:2:2z2!ped-up! (D (3FED) | %22
"_"!ped! (F2 E2)!ped! (3:2:2z2!ped-up! (C (3E!ped-up!D^C) | %23
!ped! (E2 D2)"_"!ped-up!!ped! z2 [G,B,D]2!ped-up! | %24
"_"!ped! E,,2!ped-up! [E,G,D]2"_"!ped! A,,2!ped-up! [E,A,E]2 | %25
"_"!ped! x4!ped! (3:2:2z2!ped-up! (D (3=FED) |"_"!ped! (F2 E2)!ped! (3:2:2z2!ped-up! (C (3ED^C) | %27
!ped! (E2 D2) z2 z2!ped-up! |"_"!ped! E,,2 [E,G,D]2!ped-up!"_"!ped! A,,2!ped-up! [E,A,E]2 | %29
!ped! E,4-!ped-up! (3(E,E,^D, (3:2:2=F,2 E,) |!ped! E,4-!<(! (3(E,!ped-up!E,^D, (3:2:2=F,2 E,) | %31
"^rit." (3:2:2(A,2 G,) (3:2:2(D2!<)! ^C)!>(! (3(FED- (3DCB,-) | %32
 (3:2:2(B,2 A,- (3:2:2A,2 G,- (3:2:2G,2 F,- (3:2:2F,2!>)! !fermata!E,) | %33
!ped! [D,A,D]4 [D,A,^C]4!ped-up! | [D,A,D]2 z2 (A,4 | G,2) z2 [A,,D,]4 | z2 B,2!ped! A,4!ped-up! | %37
 z2 [A,^CE]2"_"!ped! z2 [A,DF]2!ped-up! |"_"!ped! z2!ped-up! [A,^CG]2!ped! z2!ped-up! [A,=C^F]2 | %39
"_"!ped! G,,2 [G,B,DG]2!ped! ^G,,2!ped-up! [^G,=B,DF]2!ped-up! | A,,2 [A,DF]2 A,,2 [G,A,^C]2 | %41
!ped! z2 (F4 E2-)!ped-up! | ED^G,A, D3 C |!ped! !arpeggio!B, z (!>!B,4!ped-up! ^F,2-) | %44
 (F,G,ED)!ped-up!!ped! (!arpeggio!D2 ^C2) |"^poco più" z2!f! !>!=G2- (3(GFE (3:2:2G2 F) | %46
 (F2 E2-) (3(ED^C (3:2:2E2 D) |!ped! (=C2 B,2) z2 [F,A,D]2!ped-up! | A,,2 [G,A,^C]2 [D,,A,,]4 | %49
 [D,G,B,D]4 [D,,A,,]4 | [D,G,B,D]4 [D,,A,,]4 | [D,G,B,D]4 [D,,A,,]4 | [D,E,D]4 [D,,A,,]4 | %53
 [D,E,D]4 [D,,A,,]4 | [D,F,D]4- [D,F,D] z z2 | !fermata!z8 |] %56
V:4
 x8 | x4 F,2 ^F,2 | G,2 x6 | [B,,D,]4 [A,,E,]4 | G,4 F,4 | E,4 D,4 | x8 | x8 | [D,F,A,]4 [G,A,]4 | %9
 [F,A,]2 z2 [^F,A,]4 | !arpeggio![G,,D,]2 z2 [C,D,]4 | [B,,D,] z z2 !arpeggio![A,,E,]2 z2 | %12
 [=B,C]4 [A,C]4 | [G,A,]4 [F,A,]4 |{/G,,} [D,G,]4 A,,2 x2 | x8 | x8 | x8 | x8 | x8 | x8 | %21
 x4 G,,2 [G,B,]2 |{/C,} [G,C]4 F,,2 [F,A,]2 |{/B,,} [F,B,]4 G,,2 x2 | x8 | %25
 ^F,,2 [^F,=CD]2 G,,2 [G,B,]2 |{/C,} [G,C]4 F,,2 [F,A,]2 |{/B,,} [F,B,]4 G,,2 [G,B,D]2 | x8 | %29
 [G,,B,]4 [A,,A,] z z2 | [G,,B,]4 [A,,A,] z z2 | x8 | x8 | x8 | x4 F,2 ^F,2 | G,2 x6 | %36
 [B,,D,]4 [A,,E,]4 | G,4 F,4 | E,4 D,4 | x8 | x8 | [D,F,A,]4 [G,A,]4 | [F,A,]2 z2 [^F,A,]4 | %43
 !arpeggio![G,,D,]2 z2 [C,D,]4 | [B,,D,] z z2 !arpeggio![A,,E,]4 | [=B,C]4 [A,C]4 | %46
 [G,A,]4 [F,A,]4 |{/G,,} [D,G,]4 A,,2 x2 | x8 | x8 | x8 | x8 | x8 | x8 | x8 | x8 |] %56

